icons/person-arrow-right-outline.svg

<svg xmlns="http://www.w3.org/2000/svg" width="24" height="24" viewBox="0 0 24 24">
  <path d="M10.4676228,16.0003645 L11.0076763,16.0057544 C14.4141691,16.0682088 15.80903,16.6867426 15.9842893,19.0917479 L15.9953786,19.2802927 L16,19.5 L16,20.5 C16,20.7383924 15.9971539,20.817813 15.9690676,20.9648045 C15.9064905,21.2923056 15.7318635,21.5826456 15.4244325,21.7746571 C15.1451825,21.9490675 14.9786076,21.9883117 14.4919729,21.9973073 L14,22 L4,22 L3.65107363,21.9952256 C2.49782794,21.9601842 2.04900063,21.7156474 2.0039004,20.7255244 L2.00017148,20.5789484 L2,19.5 C2,16.7811217 3.40027757,16.074116 6.99322939,16.0059404 L7.53477183,16.0003645 L10.4676228,16.0003645 Z M7.53716646,18.0003616 C4.63739326,18.0073055 4.03538181,18.220675 4.00155904,19.3876232 L3.99999999,19.4998411 L3.999,20 L14,20 L14.0002452,19.5221452 L13.9966548,19.3478329 C13.9474604,18.265257 13.4009903,18.0221242 10.7281847,18.0016669 L7.53716646,18.0003616 Z M9,6 C11.209139,6 13,7.790861 13,10 C13,12.209139 11.209139,14 9,14 C6.790861,14 5,12.209139 5,10 C5,7.790861 6.790861,6 9,6 Z M9,8 C7.8954305,8 7,8.8954305 7,10 C7,11.1045695 7.8954305,12 9,12 C10.1045695,12 11,11.1045695 11,10 C11,8.8954305 10.1045695,8 9,8 Z M21.767,5.359 L21.7803112,5.37455101 L21.7837744,5.37889067 L21.779,5.374 L21.8036654,5.40469339 L21.8036654,5.40469339 C21.8215099,5.42886931 21.8382813,5.45372505 21.8539326,5.47933981 L21.8753288,5.5159379 L21.8753288,5.5159379 C21.8862061,5.53570605 21.8966234,5.5561086 21.9063462,5.57690085 L21.9287745,5.62866398 L21.9287745,5.62866398 C21.9366843,5.6484208 21.9438775,5.66820232 21.9504533,5.68826359 C21.9552713,5.70314866 21.9599023,5.71853672 21.9641549,5.73400703 C21.9701664,5.75556352 21.9753602,5.77725392 21.9798348,5.7992059 C21.9832978,5.81662474 21.9863719,5.83405099 21.9889822,5.85153313 L21.996002,5.90996805 L21.996002,5.90996805 C21.99693,5.92081308 21.9976744,5.93088722 21.9982669,5.94096861 L21.9998198,5.98082404 L22,6 L22,6 L21.999,6.019 L21.9982669,6.05903139 L21.997,6.075 L21.997,6.059 L21.996,6.081 L21.9889807,6.14896122 L21.9889807,6.14896122 C21.9863719,6.16594901 21.9832978,6.18337526 21.9797599,6.20072576 C21.9753602,6.22274608 21.9701664,6.24443648 21.964279,6.26583961 C21.9599023,6.28146328 21.9552713,6.29685134 21.9502619,6.31214252 C21.9438775,6.33179768 21.9366843,6.3515792 21.928896,6.37105852 L21.9063266,6.42322155 L21.9063266,6.42322155 C21.8966234,6.4438914 21.8862061,6.46429395 21.8751242,6.48427695 C21.8685012,6.49639444 21.8613931,6.50861311 21.8540045,6.52070875 C21.8382813,6.54627495 21.8215099,6.57113069 21.8036865,6.5951593 C21.7992821,6.60120864 21.7948255,6.60707334 21.7902954,6.61289944 C21.7849289,6.61966276 21.7826279,6.62256244 21.7803112,6.62544899 L21.7071068,6.70710678 L18.7071068,9.70710678 C18.3165825,10.0976311 17.6834175,10.0976311 17.2928932,9.70710678 C16.9324093,9.34662282 16.9046797,8.77939176 17.2097046,8.38710056 L17.2928932,8.29289322 L18.585,7 L15,7 C14.4477153,7 14,6.55228475 14,6 C14,5.48716416 14.3860402,5.06449284 14.8833789,5.00672773 L15,5 L18.585,5 L17.2928932,3.70710678 C16.9023689,3.31658249 16.9023689,2.68341751 17.2928932,2.29289322 C17.6533772,1.93240926 18.2206082,1.90467972 18.6128994,2.20970461 L18.7071068,2.29289322 L21.7071068,5.29289322 L21.775,5.37 L21.767,5.359 Z"/>
</svg>

<svg xmlns="http://www.w3.org/2000/svg" viewBox="0 0 24 24">
  <path d="M10.47 16H11c3.4.07 4.8.69 4.97 3.1l.02.18v1.22c0 .24 0 .32-.03.46a1.2 1.2 0 0 1-.55.81c-.27.18-.44.22-.93.23H3.65c-1.15-.04-1.6-.28-1.65-1.27V19.5c0-2.72 1.4-3.43 5-3.5h3.46zm-2.93 2c-2.9 0-3.5.22-3.54 1.39V20h10v-.65c-.05-1.08-.6-1.33-3.27-1.35h-3.2zM9 6a4 4 0 1 1 0 8 4 4 0 0 1 0-8zm0 2a2 2 0 1 0 0 4 2 2 0 0 0 0-4zm12.77-2.64.01.01.02.03.05.08.03.04.03.06.02.05a.99.99 0 0 1 .06.22v.09l.01.04v.1-.02.02l-.01.07a1.08 1.08 0 0 1-.06.22l-.02.05a1.02 1.02 0 0 1-.13.2l-.07.09-3 3a1 1 0 0 1-1.5-1.32l.08-.1L18.6 7H15a1 1 0 0 1-.12-2h3.71l-1.3-1.3a1 1 0 0 1 1.32-1.49l.1.08 3 3 .06.08v-.01z"/>
</svg>
